SF_Symbols/phone.connection.fill.svg

<?xml version="1.0" encoding="UTF-8"?>
<svg xmlns="http://www.w3.org/2000/svg" xmlns:xlink="http://www.w3.org/1999/xlink" width="24" height="24" viewBox="0 0 24 24" version="1.1">
<g id="surface1">
<path style=" stroke:none;fill-rule:nonzero;fill:rgb(100%,100%,100%);fill-opacity:1;" d="M 6.398438 18.210938 C 7.464844 19.269531 8.585938 20.222656 9.761719 21.078125 C 10.9375 21.929688 12.113281 22.605469 13.289062 23.105469 C 14.46875 23.605469 15.582031 23.855469 16.632812 23.855469 C 17.34375 23.855469 18.011719 23.726562 18.628906 23.46875 C 19.246094 23.214844 19.804688 22.808594 20.304688 22.257812 C 20.59375 21.933594 20.820312 21.585938 20.988281 21.210938 C 21.164062 20.84375 21.253906 20.46875 21.253906 20.09375 C 21.253906 19.816406 21.195312 19.550781 21.078125 19.300781 C 20.96875 19.042969 20.78125 18.824219 20.515625 18.640625 L 17.140625 16.234375 C 16.882812 16.058594 16.644531 15.925781 16.421875 15.839844 C 16.203125 15.75 15.992188 15.707031 15.792969 15.707031 C 15.542969 15.707031 15.300781 15.777344 15.066406 15.914062 C 14.832031 16.046875 14.589844 16.238281 14.339844 16.488281 L 13.554688 17.261719 C 13.4375 17.378906 13.296875 17.4375 13.136719 17.4375 C 13.046875 17.4375 12.964844 17.421875 12.882812 17.394531 C 12.808594 17.363281 12.742188 17.339844 12.683594 17.316406 C 12.34375 17.132812 11.90625 16.816406 11.371094 16.367188 C 10.835938 15.910156 10.292969 15.410156 9.75 14.867188 C 9.214844 14.324219 8.71875 13.78125 8.261719 13.246094 C 7.804688 12.710938 7.488281 12.273438 7.3125 11.933594 C 7.28125 11.875 7.253906 11.808594 7.222656 11.734375 C 7.203125 11.65625 7.191406 11.574219 7.191406 11.492188 C 7.191406 11.332031 7.246094 11.195312 7.355469 11.085938 L 8.128906 10.28125 C 8.378906 10.03125 8.570312 9.785156 8.703125 9.550781 C 8.84375 9.316406 8.910156 9.074219 8.910156 8.824219 C 8.910156 8.625 8.867188 8.414062 8.78125 8.195312 C 8.691406 7.972656 8.554688 7.734375 8.371094 7.476562 L 6 4.136719 C 5.808594 3.871094 5.582031 3.679688 5.316406 3.5625 C 5.050781 3.4375 4.773438 3.375 4.476562 3.375 C 3.714844 3.375 3.003906 3.695312 2.347656 4.335938 C 1.8125 4.847656 1.417969 5.417969 1.167969 6.042969 C 0.925781 6.660156 0.804688 7.324219 0.804688 8.03125 C 0.804688 9.089844 1.046875 10.203125 1.53125 11.371094 C 2.027344 12.53125 2.695312 13.699219 3.539062 14.867188 C 4.386719 16.035156 5.339844 17.152344 6.398438 18.210938 Z M 12.097656 12.605469 C 12.394531 12.902344 12.75 13.046875 13.167969 13.046875 C 13.589844 13.046875 13.945312 12.898438 14.238281 12.59375 C 14.53125 12.300781 14.679688 11.949219 14.679688 11.535156 C 14.679688 11.125 14.53125 10.773438 14.238281 10.476562 C 13.945312 10.175781 13.589844 10.027344 13.167969 10.027344 C 12.75 10.027344 12.394531 10.171875 12.097656 10.46875 C 11.804688 10.761719 11.65625 11.117188 11.65625 11.535156 C 11.65625 11.949219 11.804688 12.304688 12.097656 12.605469 Z M 13.191406 6.496094 C 13.015625 6.664062 12.925781 6.875 12.925781 7.125 C 12.925781 7.367188 13.015625 7.578125 13.191406 7.753906 L 16.953125 11.515625 C 17.128906 11.691406 17.339844 11.78125 17.582031 11.78125 C 17.832031 11.78125 18.039062 11.691406 18.210938 11.515625 C 18.378906 11.34375 18.464844 11.140625 18.464844 10.898438 C 18.464844 10.648438 18.378906 10.4375 18.210938 10.269531 L 14.4375 6.496094 C 14.269531 6.320312 14.058594 6.230469 13.808594 6.230469 C 13.566406 6.230469 13.359375 6.320312 13.191406 6.496094 Z M 17.160156 7.554688 C 17.464844 7.84375 17.820312 7.984375 18.230469 7.984375 C 18.644531 7.984375 18.996094 7.839844 19.289062 7.542969 C 19.585938 7.25 19.730469 6.898438 19.730469 6.484375 C 19.730469 6.066406 19.585938 5.714844 19.289062 5.425781 C 18.996094 5.125 18.640625 4.972656 18.21875 4.972656 C 17.808594 4.972656 17.457031 5.121094 17.160156 5.414062 C 16.859375 5.710938 16.710938 6.0625 16.710938 6.472656 C 16.710938 6.886719 16.859375 7.246094 17.160156 7.554688 Z M 18.253906 1.433594 C 18.085938 1.609375 18 1.824219 18 2.074219 C 18 2.316406 18.085938 2.523438 18.253906 2.691406 L 22.015625 6.464844 C 22.183594 6.632812 22.394531 6.71875 22.644531 6.71875 C 22.894531 6.71875 23.101562 6.632812 23.273438 6.464844 C 23.449219 6.292969 23.535156 6.089844 23.535156 5.84375 C 23.535156 5.59375 23.449219 5.382812 23.273438 5.207031 L 19.511719 1.433594 C 19.335938 1.265625 19.121094 1.179688 18.871094 1.179688 C 18.621094 1.179688 18.414062 1.265625 18.253906 1.433594 Z M 18.253906 1.433594 "/>
</g>
</svg>

<svg xmlns="http://www.w3.org/2000/svg" width="24" height="24"><path style="stroke:none;fill-rule:nonzero;fill:#fff;fill-opacity:1" d="M6.398 18.21c1.047 1.04 2.172 2 3.364 2.868 1.175.852 2.351 1.527 3.527 2.027 1.18.5 2.293.75 3.344.75.71 0 1.379-.128 1.996-.386.617-.254 1.176-.66 1.676-1.211.289-.324.515-.672.683-1.047.176-.367.266-.742.266-1.117 0-.274-.059-.543-.176-.793a1.54 1.54 0 0 0-.562-.66l-3.375-2.407a3.57 3.57 0 0 0-.72-.394 1.665 1.665 0 0 0-.628-.133c-.25 0-.492.07-.727.207a3.436 3.436 0 0 0-.726.574l-.785.774a.582.582 0 0 1-.418.175.806.806 0 0 1-.254-.042c-.074-.032-.14-.055-.2-.079-.34-.183-.777-.5-1.312-.949-.559-.48-1.101-.98-1.621-1.5a30.729 30.729 0 0 1-1.488-1.62c-.457-.536-.774-.974-.95-1.313-.03-.059-.058-.125-.09-.2a1.004 1.004 0 0 1-.03-.242c0-.16.054-.297.163-.406l.774-.805c.25-.25.441-.496.574-.73.14-.235.207-.477.207-.727 0-.199-.043-.41-.129-.629a3.636 3.636 0 0 0-.41-.718L6 4.137a1.68 1.68 0 0 0-.684-.574 1.953 1.953 0 0 0-.84-.188c-.761 0-1.472.32-2.128.96a4.838 4.838 0 0 0-1.18 1.708 5.401 5.401 0 0 0-.363 1.988c0 1.059.242 2.172.726 3.34.496 1.16 1.164 2.328 2.008 3.496a28.088 28.088 0 0 0 2.86 3.344Zm5.7-5.605c.297.297.652.442 1.07.442.422 0 .777-.149 1.07-.453.293-.293.442-.645.442-1.059 0-.41-.149-.762-.442-1.058-.293-.301-.648-.45-1.07-.45-.418 0-.773.145-1.07.442-.29.281-.45.664-.442 1.066 0 .414.149.77.442 1.07Zm1.093-6.109a.836.836 0 0 0-.265.629c0 .242.09.453.265.629l3.762 3.762c.164.171.39.265.629.265.25 0 .457-.09.629-.265a.856.856 0 0 0 .254-.618c0-.25-.086-.46-.254-.628l-3.773-3.774a.836.836 0 0 0-.63-.266c-.242 0-.449.09-.617.266Zm3.97 1.059c.304.289.66.43 1.07.43.414 0 .765-.145 1.058-.442.297-.293.441-.645.441-1.059 0-.418-.144-.77-.44-1.058a1.423 1.423 0 0 0-1.071-.453c-.41 0-.762.148-1.059.441-.3.297-.45.649-.45 1.059 0 .414.15.773.45 1.082Zm1.093-6.121a.894.894 0 0 0-.254.64c0 .242.086.45.254.617l3.762 3.774a.867.867 0 0 0 .629.254c.25 0 .457-.086.628-.254a.83.83 0 0 0 .262-.621c0-.25-.086-.461-.262-.637l-3.761-3.773a.894.894 0 0 0-.64-.254.82.82 0 0 0-.618.254Zm0 0"/></svg>
